packages/katcn/src/icons/svg/thunder.svg

<svg width="24" height="25" viewBox="0 0 24 25" fill="none" xmlns="http://www.w3.org/2000/svg">
<path d="M15.2 1.96796C10.9 1.96796 7.39999 5.36796 7.39999 9.46796C7.39999 10.068 7.79999 10.468 8.39999 10.468C8.99999 10.468 9.39999 10.068 9.39999 9.46796C9.39999 6.46796 12 3.96796 15.2 3.96796C18.4 3.96796 21 6.46796 21 9.46796C21 12.468 18.4 14.968 15.2 14.968C14.6 14.968 14.2 15.368 14.2 15.968C14.2 16.568 14.6 16.968 15.2 16.968C19.5 16.968 23 13.568 23 9.46796C23 5.36796 19.5 1.96796 15.2 1.96796Z" fill="black"/>
<path d="M14.7 17.568H11.5L14 14.968C14.4 14.568 14.3 13.968 13.9 13.568C13.5 13.168 12.9 13.268 12.5 13.668L11.2 14.968H7C4.8 14.968 3 13.268 3 11.168C3 9.46795 4.2 7.96795 5.9 7.56795C6.4 7.46795 6.7 6.86795 6.6 6.36795C6.5 5.86795 5.9 5.46795 5.4 5.66795C2.8 6.36795 1 8.66795 1 11.168C1 14.368 3.7 16.968 7 16.968H9.4L8.5 17.868C8.2 18.168 8.2 18.568 8.3 18.968C8.5 19.368 8.8 19.568 9.2 19.568H12.4L10 22.268C9.6 22.668 9.7 23.268 10.1 23.668C10.2 23.868 10.5 23.968 10.7 23.968C11 23.968 11.2 23.868 11.4 23.668L15.4 19.368C15.7 19.068 15.7 18.668 15.6 18.268C15.5 17.868 15.1 17.568 14.7 17.568Z" fill="black"/>
</svg>

<svg xmlns="http://www.w3.org/2000/svg" fill="none" viewBox="0 0 24 25"><path fill="#000" d="M15.2 1.968c-4.3 0-7.8 3.4-7.8 7.5 0 .6.4 1 1 1s1-.4 1-1c0-3 2.6-5.5 5.8-5.5s5.8 2.5 5.8 5.5-2.6 5.5-5.8 5.5c-.6 0-1 .4-1 1s.4 1 1 1c4.3 0 7.8-3.4 7.8-7.5s-3.5-7.5-7.8-7.5"/><path fill="#000" d="M14.7 17.568h-3.2l2.5-2.6c.4-.4.3-1-.1-1.4s-1-.3-1.4.1l-1.3 1.3H7c-2.2 0-4-1.7-4-3.8 0-1.7 1.2-3.2 2.9-3.6.5-.1.8-.7.7-1.2s-.7-.9-1.2-.7c-2.6.7-4.4 3-4.4 5.5 0 3.2 2.7 5.8 6 5.8h2.4l-.9.9c-.3.3-.3.7-.2 1.1q.3.6.9.6h3.2l-2.4 2.7c-.4.4-.3 1 .1 1.4.1.2.4.3.6.3.3 0 .5-.1.7-.3l4-4.3c.3-.3.3-.7.2-1.1s-.5-.7-.9-.7"/></svg>
